svg/other/pot_line.svg

<?xml version="1.0" encoding="UTF-8"?>
<svg width="24px" height="24px" viewBox="0 0 24 24" version="1.1" xmlns="http://www.w3.org/2000/svg" xmlns:xlink="http://www.w3.org/1999/xlink">
    <title>pot_line</title>
    <g id="Icon" stroke="none" stroke-width="1" fill="none" fill-rule="evenodd">
        <g id="Other" transform="translate(-912.000000, 0.000000)" fill-rule="nonzero">
            <g id="pot_line" transform="translate(912.000000, 0.000000)">
                <path d="M24,0 L24,24 L0,24 L0,0 L24,0 Z M12.5935,23.2578 L12.5819,23.2595 L12.5109,23.295 L12.4919,23.2987 L12.4767,23.295 L12.4057,23.2595 C12.3958,23.2564 12.387,23.259 12.3821,23.2649 L12.378,23.2758 L12.3609,23.7031 L12.3659,23.7235 L12.3769,23.7357 L12.4805,23.8097 L12.4953,23.8136 L12.5071,23.8097 L12.6107,23.7357 L12.6233,23.7197 L12.6267,23.7031 L12.6096,23.2758 C12.6076,23.2657 12.601,23.2593 12.5935,23.2578 Z M12.8584,23.1453 L12.8445,23.1473 L12.6598,23.2397 L12.6499,23.2499 L12.6472,23.2611 L12.6651,23.6906 L12.6699,23.7034 L12.6784,23.7105 L12.8793,23.8032 C12.8914,23.8069 12.9022,23.803 12.9078,23.7952 L12.9118,23.7812 L12.8777,23.1665 C12.8753,23.1546 12.8674,23.147 12.8584,23.1453 Z M12.143,23.1473 C12.1332,23.1424 12.1222,23.1453 12.1156,23.1526 L12.1099,23.1665 L12.0758,23.7812 C12.0751,23.7927 12.0828,23.8019 12.0926,23.8046 L12.1083,23.8032 L12.3092,23.7105 L12.3186,23.7024 L12.3225,23.6906 L12.3404,23.2611 L12.3372,23.2485 L12.3278,23.2397 L12.143,23.1473 Z" id="MingCute"></path>
                <path d="M5.90223,7.43779 C5.5742,7.62718 5.38133,7.98564 5.40402,8.36373 L5.47101,9.47976 C5.48531,9.71804 5.58438,9.94334 5.75031,10.115 L6.61864,11.013 L3.82985,10.6132 C3.32877,10.5414 2.85305,10.8554 2.72204,11.3443 L2.53903,12.0273 C2.42762,12.4431 2.59476,12.8835 2.95396,13.1207 L9.866,17.6844 L10.6702,19.4663 C11.1569,20.5448 12.4684,20.9673 13.4931,20.3757 L19.3952,16.9681 C20.4042,16.3856 20.7037,15.0674 20.0455,14.1062 L18.3434,11.6202 C19.7387,10.2147 20.082,7.9987 19.0442,6.20112 C17.887,4.1968 15.4207,3.41947 13.3489,4.32555 L13.2895,4.23887 C12.9943,3.80771 12.4169,3.67652 11.9644,3.93779 L5.90223,7.43779 Z M12.1624,6.13286 L18.3952,15.2361 L12.4931,18.6436 L11.4912,16.4235 L11.52,16.3798 L11.4509,16.3342 L8.81371,10.4905 C8.76633,10.3856 8.70118,10.2896 8.62113,10.2068 L7.44525,8.99067 L7.43746,8.86082 L12.1624,6.13286 Z M14.5167,6.03123 C15.5788,5.75394 16.7367,6.20451 17.3121,7.20112 C17.7880688,8.02556687 17.7410883,9.00845418 17.274073,9.76562847 L17.1751,9.91394 L14.5167,6.03123 Z M8.32536,14.2705 L6.4054,13.0029 L7.84649,13.2094 L8.32536,14.2705 Z" id="形状" fill="#09244B"></path>
            </g>
        </g>
    </g>
</svg>

<svg xmlns="http://www.w3.org/2000/svg" width="24" height="24"><g fill="none" fill-rule="nonzero"><path d="M24 0v24H0V0h24ZM12.594 23.258l-.012.002-.071.035-.02.004-.014-.004-.071-.036c-.01-.003-.019 0-.024.006l-.004.01-.017.428.005.02.01.013.104.074.015.004.012-.004.104-.074.012-.016.004-.017-.017-.427c-.002-.01-.009-.017-.016-.018Zm.264-.113-.014.002-.184.093-.01.01-.003.011.018.43.005.012.008.008.201.092c.012.004.023 0 .029-.008l.004-.014-.034-.614c-.003-.012-.01-.02-.02-.022Zm-.715.002a.023.023 0 0 0-.027.006l-.006.014-.034.614c0 .012.007.02.017.024l.015-.002.201-.093.01-.008.003-.011.018-.43-.003-.012-.01-.01-.184-.092Z"/><path fill="#09244B" d="M5.902 7.438a1 1 0 0 0-.498.926l.067 1.116a1 1 0 0 0 .28.635l.868.898-2.79-.4a1 1 0 0 0-1.107.731l-.183.683a1 1 0 0 0 .415 1.094l6.912 4.563.804 1.782a2 2 0 0 0 2.823.91l5.902-3.408a2 2 0 0 0 .65-2.862l-1.702-2.486a4.502 4.502 0 0 0-4.994-7.294l-.06-.087a1 1 0 0 0-1.325-.301l-6.062 3.5Zm6.26-1.305 6.233 9.103-5.902 3.408-1.002-2.22.029-.044-.07-.046-2.636-5.843a1.001 1.001 0 0 0-.193-.284L7.445 8.99l-.008-.13 4.725-2.728Zm2.355-.102a2.501 2.501 0 0 1 2.757 3.735l-.099.148-2.658-3.883Zm-6.192 8.24-1.92-1.268 1.441.206.48 1.062Z"/></g></svg>
